jcchess/images/pieceset2/knightW.svg

<?xml version="1.0" encoding="UTF-8" standalone="no"?>
<svg
   xmlns:dc="http://purl.org/dc/elements/1.1/"
   xmlns:cc="http://creativecommons.org/ns#"
   xmlns:rdf="http://www.w3.org/1999/02/22-rdf-syntax-ns#"
   xmlns:svg="http://www.w3.org/2000/svg"
   xmlns="http://www.w3.org/2000/svg"
   xmlns:sodipodi="http://sodipodi.sourceforge.net/DTD/sodipodi-0.dtd"
   xmlns:inkscape="http://www.inkscape.org/namespaces/inkscape"
   version="1.1"
   width="45"
   height="45"
   id="svg2"
   inkscape:version="0.91 r13725"
   sodipodi:docname="knightW20.svg">
  <metadata
     id="metadata18">
    <rdf:RDF>
      <cc:Work
         rdf:about="">
        <dc:format>image/svg+xml</dc:format>
        <dc:type
           rdf:resource="http://purl.org/dc/dcmitype/StillImage" />
        <dc:title></dc:title>
      </cc:Work>
    </rdf:RDF>
  </metadata>
  <defs
     id="defs16" />
  <sodipodi:namedview
     pagecolor="#ffffff"
     bordercolor="#666666"
     borderopacity="1"
     objecttolerance="10"
     gridtolerance="10"
     guidetolerance="10"
     inkscape:pageopacity="0"
     inkscape:pageshadow="2"
     inkscape:window-width="792"
     inkscape:window-height="480"
     id="namedview14"
     showgrid="false"
     inkscape:zoom="5.2444444"
     inkscape:cx="22.5"
     inkscape:cy="22.5"
     inkscape:window-x="0"
     inkscape:window-y="28"
     inkscape:window-maximized="0"
     inkscape:current-layer="svg2" />
  <g
     style="opacity:1;fill:none;fill-opacity:1;fill-rule:evenodd;stroke:#000000;stroke-width:1.5;stroke-linecap:round;stroke-linejoin:round;stroke-miterlimit:4;stroke-dasharray:none;stroke-opacity:1"
     id="g4"
     transform="matrix(1.2,0,0,1.2,-4.4029252,-4.6)">
    <path
       d="m 22,10 c 10.5,1 16.5,8 16,29 l -23,0 c 0,-9 10,-6.5 8,-21"
       style="fill:#ffffff;stroke:#000000"
       id="path6"
       inkscape:connector-curvature="0" />
    <path
       d="m 24,18 c 0.38,2.91 -5.55,7.37 -8,9 -3,2 -2.82,4.34 -5,4 -1.042,-0.94 1.41,-3.04 0,-3 -1,0 0.19,1.23 -1,2 -1,0 -4.003,1 -4,-4 0,-2 6,-12 6,-12 0,0 1.89,-1.9 2,-3.5 -0.73,-0.994 -0.5,-2 -0.5,-3 1,-1 3,2.5 3,2.5 l 2,0 c 0,0 0.78,-1.992 2.5,-3 1,0 1,3 1,3"
       style="fill:#ffffff;stroke:#000000"
       id="path8"
       inkscape:connector-curvature="0" />
    <path
       d="m 9.5,25.5 a 0.5,0.5 0 1 1 -1,0 0.5,0.5 0 1 1 1,0 z"
       style="fill:#000000;stroke:#000000"
       id="path10"
       inkscape:connector-curvature="0" />
    <path
       d="m 15,15.5 a 0.5,1.5 0 1 1 -1,0 0.5,1.5 0 1 1 1,0 z"
       transform="matrix(0.866,0.5,-0.5,0.866,9.693,-5.173)"
       style="fill:#000000;stroke:#000000"
       id="path12"
       inkscape:connector-curvature="0" />
  </g>
</svg>

<?xml version="1.0" encoding="UTF-8" standalone="no"?>
<!DOCTYPE svg PUBLIC "-//W3C//DTD SVG 1.1//EN" "http://www.w3.org/Graphics/SVG/1.1/DTD/svg11.dtd">
<svg xmlns="http://www.w3.org/2000/svg" version="1.1" width="45" height="45">
  <g style="opacity:1; fill:none; fill-opacity:1; fill-rule:evenodd; stroke:#000000; stroke-width:1.5; stroke-linecap:round;stroke-linejoin:round;stroke-miterlimit:4; stroke-dasharray:none; stroke-opacity:1;">
    <path
      d="M 22,10 C 32.5,11 38.5,18 38,39 L 15,39 C 15,30 25,32.5 23,18"
      style="fill:#ffffff; stroke:#000000;" />
    <path
      d="M 24,18 C 24.38,20.91 18.45,25.37 16,27 C 13,29 13.18,31.34 11,31 C 9.958,30.06 12.41,27.96 11,28 C 10,28 11.19,29.23 10,30 C 9,30 5.997,31 6,26 C 6,24 12,14 12,14 C 12,14 13.89,12.1 14,10.5 C 13.27,9.506 13.5,8.5 13.5,7.5 C 14.5,6.5 16.5,10 16.5,10 L 18.5,10 C 18.5,10 19.28,8.008 21,7 C 22,7 22,10 22,10"
      style="fill:#ffffff; stroke:#000000;" />
    <path
      d="M 9.5 25.5 A 0.5 0.5 0 1 1 8.5,25.5 A 0.5 0.5 0 1 1 9.5 25.5 z"
      style="fill:#000000; stroke:#000000;" />
    <path
      d="M 15 15.5 A 0.5 1.5 0 1 1  14,15.5 A 0.5 1.5 0 1 1  15 15.5 z"
      transform="matrix(0.866,0.5,-0.5,0.866,9.693,-5.173)"
      style="fill:#000000; stroke:#000000;" />
  </g>
</svg>
